X:1
T:Title
%%score { ( 1 4 ) | ( 2 3 ) }
L:1/8
M:4/4
K:Bb
V:1 treble nm="Grand Piano"
V:4 treble 
V:2 bass 
V:3 bass 
V:1
 z4 z2[Q:1/4=100] DE | [B,DF]2 [B,DF][B,F] [A,CF]2 [B,FB][Fc] | [Fd]2 [Fd][Fd] [Fd]3 [FB] | %3
 c2 cc c2 [FB][Fc] | [Fd]2 [GB][EG] [DF]2 [B,D]E | [B,DF]2 [B,DF][B,F] [A,CF]2 [B,FB]c | %6
 d2 dd d3 d | [Ge]2 [GB]G F2 BB | B2 AA [DB]4 | c2 cc c2 AF | [DB]2 [GB][EB] [DB]3 [B,DF] | %11
 z4 d2 z2 | B2 AA [DB]4 |] %13
V:2
 z4 z2 B,C | B,,2 B,,D, F,E,D,[C,A,] | [B,,B,]2 [B,,B,][B,,B,] [B,,B,]3 [D,B,] | %3
 [F,A,F]2 [F,A,F][F,A,F] [F,A,F]2 [D,B,][F,A,] | [B,,B,]2 [B,,B,][B,,B,] [B,,B,]2 z C | %5
 B,,2 B,,D, F,E,D,[K:treble][F,A,F] | [B,F]2 [B,F][B,F] [B,F]3 [B,_A] | %7
 [E,B,]2 [E,B,][E,B,E] [F,B,D]2 [G,B,D][G,CE] | [F,DF]2 [F,CE][F,CE] [B,,B,]4 | %9
 [F,A,F]2 [F,A,F][F,A,F] [F,A,F]2 [F,CF][F,A,E] | [B,,B,]2 [B,,B,][B,,G,] [B,,F,]3 B,, | %11
 z CD,[K:treble][F,A,F] .[B,F]2[K:bass] [E,B,][E,E] | [F,DF]2 [F,CE][F,CE] [B,,B,]4 |] %13
V:3
 z4 z2 [B,,F,]2 | x8 | x8 | x8 | z4 z2 [B,,F,]2 | x7[K:treble] x | x8 | x8 | x8 | x8 | x8 | %11
 E,2 z2[K:treble] z4[K:bass] | x8 |] %13
V:4
 x8 | x8 | x8 | x8 | x8 | x8 | x8 | x8 | x8 | x8 | x8 | [B,EG][FA][B,FB]c z _A[Ge][Gc] | x8 |] %13

